X:1
T:Title
%%score { ( 1 3 ) | ( 2 4 ) }
L:1/8
Q:1/4=100
M:4/4
K:Ab
V:1 treble nm="Grand Piano"
V:3 treble 
V:2 bass 
V:4 bass 
V:1
 [CE]2 [CA]2 [CA]2 [EA]2 | A4 G4 | E2 d2 d2 d2 | d4 c4 | F2 F2 A2 A2 | E2 E2 [EA]2 [Ec]2 | %6
w: Ira~D.~Sankey * * *||||||
 [=Dc]2 [DB]2 [DF]2 [DB]2 | B6 z2 | E2 A2 [EA]2 [CA]2 | A4 G4 | E2 d2 d2 d2 | d4 c4 | c2 e2 e2 e2 | %13
w: |||||||
 e2 d2 [B,DF]2 [DFB]2 | [CEA]4 [B,DG]4 | [A,CA]6 z2 |] %16
w: |||
V:2
 [A,,A,]2 [A,,A,]2 [A,,A,]2 [C,A,]2 | [E,B,D]4 [E,B,D]4 | %2
 [E,G,]2 [E,G,E]2 [F,A,E]2[K:treble] [G,B,E]2 | [A,F]4[K:bass] [A,E]4 | %4
 [D,A,D]2 [D,A,D]2 [F,A,D]2 [F,A,D]2 | [A,C]2 [E,A,C]2 [C,A,]2 [A,,A,]2 | %6
 [B,,F,]2 [B,,B,]2 [B,,B,]2 [B,,A,]2 | E4 z4 | [A,C]2 [E,A,C]2 [C,A,]2 [A,,A,]2 | %9
 [E,B,D]4 [E,B,D]4 | [E,G,]2 [E,G,E]2 [F,A,E]2[K:treble] [G,B,E]2 | [A,F]4 [A,E]4 | %12
 [A,E]2 [A,C_G]2 [=A,CG]2 [A,CF]2 | [B,F]2 [B,F]2[K:bass] B,,2 B,,2 | E,4 E,4 | A,,6 z2 |] %16
V:3
 x8 | x8 | x8 | x8 | x8 | x8 | x8 | z4 D4 | x8 | x8 | x8 | x8 | x8 | x8 | x8 | x8 |] %16
V:4
 x8 | x8 | x6[K:treble] x2 | x4[K:bass] x4 | x8 | x8 | x8 | [E,G,]8 | x8 | x8 | x6[K:treble] x2 | %11
 x8 | x8 | x4[K:bass] x4 | x8 | x8 |] %16

